icons/desktop/16/svg/microphone-slash-16.svg

<svg width="16" height="16" viewBox="0 0 16 16" fill="none" xmlns="http://www.w3.org/2000/svg">
<path d="M0.219994 0.719727C0.51288 0.426973 0.987552 0.427139 1.28054 0.719727L15.2805 14.7197C15.5735 15.0127 15.5735 15.4882 15.2805 15.7812C15.1346 15.927 14.943 16.0009 14.7512 16.001L14.7503 16C14.5583 16 14.366 15.9272 14.22 15.7803L10.7542 12.3145C10.1374 12.6387 9.46185 12.8594 8.75027 12.9512V14.5H11.2503C11.6644 14.5001 12.0003 14.8359 12.0003 15.25C12.0003 15.6641 11.6644 15.9999 11.2503 16H4.75027C4.33605 16 4.00027 15.6642 4.00027 15.25C4.00027 14.8358 4.33605 14.5 4.75027 14.5H7.25027V12.9521C4.61419 12.617 2.44514 10.54 2.06081 7.8584C2.00284 7.44755 2.2868 7.068 2.69656 7.00879C3.10743 6.94081 3.48699 7.23473 3.54617 7.64453C3.86117 9.84253 5.77527 11.5 8.00027 11.5C8.57106 11.5 9.12088 11.3889 9.62917 11.1895L8.4114 9.97168C8.27695 9.98842 8.14034 9.99999 8.00124 10C6.24227 10 4.77989 8.69004 4.60085 6.95508C4.57116 6.67009 4.54914 6.382 4.53249 6.09277L0.219994 1.78027C-0.0730059 1.48727 -0.0730059 1.01273 0.219994 0.719727Z" fill="black"/>
<path d="M13.303 7.00684C13.713 7.06584 13.9977 7.44645 13.9387 7.85645C13.7967 8.84811 13.3961 9.74487 12.8333 10.5137L11.7571 9.43945C12.1061 8.90645 12.3594 8.30358 12.4544 7.64258C12.5136 7.23284 12.8882 6.94088 13.303 7.00684Z" fill="black"/>
<path d="M7.99929 0C9.75814 0.00012594 11.2197 1.31006 11.3987 3.04492C11.4657 3.68792 11.5003 4.346 11.5003 5C11.5003 5.62591 11.4685 6.25987 11.4065 6.88379C11.3475 7.48479 11.1297 8.02912 10.8137 8.49512L9.7239 7.40527C9.82286 7.20036 9.8903 6.97523 9.91433 6.73535C9.97133 6.16035 10.0003 5.576 10.0003 5C10.0003 4.39709 9.96948 3.79213 9.90749 3.19922C9.8085 2.2303 8.98918 1.50012 7.99929 1.5C7.00941 1.5 6.18737 2.25883 6.08621 3.26465C6.07021 3.42365 6.07279 3.58414 6.06179 3.74414L4.73953 2.41992C5.17859 1.00203 6.47437 0 7.99929 0Z" fill="black"/>
</svg>

<!-- This Source Code Form is subject to the terms of the Mozilla Public
   - License, v. 2.0. If a copy of the MPL was not distributed with this
   - file, You can obtain one at http://mozilla.org/MPL/2.0/. -->
<svg xmlns="http://www.w3.org/2000/svg" width="16" height="16" fill="context-fill" fill-opacity="context-fill-opacity" viewBox="0 0 16 16">
    <path d="M.22.72a.75.75 0 0 1 1.06 0l14 14A.75.75 0 0 1 14.752 16V16a.75.75 0 0 1-.531-.22l-3.466-3.465a5.9 5.9 0 0 1-2.004.636V14.5h2.5a.75.75 0 0 1 0 1.5h-6.5a.75.75 0 0 1 0-1.5h2.5v-1.548c-2.636-.335-4.805-2.412-5.19-5.094a.75.75 0 0 1 .637-.85c.41-.067.79.227.85.637A4.52 4.52 0 0 0 8 11.5c.571 0 1.12-.111 1.63-.31L8.41 9.972a3.4 3.4 0 0 1-3.81-3.017q-.044-.428-.069-.862L.22 1.78a.75.75 0 0 1 0-1.06M13.303 7.007a.75.75 0 0 1 .636.85 5.9 5.9 0 0 1-1.106 2.657l-1.076-1.075a4.4 4.4 0 0 0 .697-1.796.74.74 0 0 1 .849-.636M8 0c1.758 0 3.22 1.31 3.399 3.045a19 19 0 0 1 .008 3.839 3.47 3.47 0 0 1-.593 1.611l-1.09-1.09c.099-.205.166-.43.19-.67A17.7 17.7 0 0 0 9.907 3.2 1.9 1.9 0 0 0 8 1.5c-.99 0-1.812.759-1.913 1.765-.016.159-.013.32-.024.48L4.74 2.42A3.41 3.41 0 0 1 8 0" />
</svg>
